Papirus/64x64/apps/civilization-beyond-earth.svg

<svg width="64" height="64" version="1.1" xmlns="http://www.w3.org/2000/svg">
 <path d="m31.652344 5.0022469c-1.186223-0.027895-2.358772 0.266147-3.386719 0.8496094l-19.03125 10.816407c-2.0015062 1.13739-3.2345209 3.238689-3.234375 5.513672v21.634765c-7e-7 1.583726 0.6080485 3.075614 1.6464844 4.22461a6.4680411 6.3670334 0 0 0 0.109375 0.121093c0.1047401 0.110101 0.2132244 0.215426 0.3261718 0.31836a6.4680411 6.3670334 0 0 0 0.25 0.216797c0.097477 0.08003 0.1941868 0.159728 0.296875 0.234375a6.4680411 6.3670334 0 0 0 0.6054688 0.398437l19.03125 10.816406a6.4680411 6.3670334 0 0 0 6.46875 0l19.03125-10.816406a6.4680411 6.3670334 0 0 0 3.234375-5.513672v-21.632812a6.4680411 6.3670334 0 0 0 0-2e-3c0-2e-3 2e-6 -0.0039 0-0.0059a6.4680411 6.3670334 0 0 0-0.04883-0.736328c-0.01128-0.09469-0.0294-0.187564-0.04492-0.28125a6.4680411 6.3670334 0 0 0-0.09375-0.46085c-0.02366-0.09705-0.04798-0.193497-0.07617-0.289063a6.4680411 6.3670334 0 0 0-0.162109-0.470703c-0.02991-0.07803-0.05494-0.157655-0.08789-0.234375a6.4680411 6.3670334 0 0 0-0.0059-0.01563 6.4680411 6.3670334 0 0 0-0.0332-0.07227l-0.0039 2e-3c-0.54547-1.218494-1.467228-2.261382-2.677706-2.949256l-19.03125-10.816407c-0.93806-0.5323778-1.997602-0.8246873-3.080078-0.8496094z" style="opacity:.2"/>
 <path d="m31.653424 4.0018627c-1.186892-0.0282646-2.358793 0.2655932-3.387305 0.8493764l-19.031812 10.816355c-2.0015062 1.13739-3.2344525 3.239595-3.2343066 5.514578v21.634108c-1e-6 2.274726 1.232802 4.376658 3.2340234 5.514018l19.031954 10.816702c2.001222 1.137364 4.466825 1.137364 6.468046 0l19.031824-10.816712c2.001506-1.13739 3.234451-3.239594 3.234307-5.514576l-1.54e-4 -21.6341c1.45e-4 -2.274983-1.232801-4.377188-3.234308-5.514578l-19.031811-10.816355c-0.938624-0.532698-1.998149-0.8247608-3.081305-0.8493764z" style="fill:#e4e4e4"/>
 <path d="m31.652344 4.0019531c-1.186223-0.027895-2.358772 0.266147-3.386719 0.8496094l-19.03125 10.816406c-2.0015062 1.13739-3.2345209 3.238689-3.234375 5.513672v1c-1.459e-4 -2.274983 1.2328688-4.376282 3.234375-5.513672l19.03125-10.816406c1.027947-0.5834624 2.200496-0.8775044 3.386719-0.8496094h2e-3c1.082476 0.024922 2.142018 0.3172316 3.080078 0.8496094l19.03125 10.816406c1.210478 0.687874 2.132264 1.730725 2.677734 2.949219l0.0039-2e-3a6.4680411 6.3670334 0 0 1 0.0332 0.07227 6.4680411 6.3670334 0 0 1 0.0059 0.01563c0.03295 0.07672 0.05798 0.156345 0.08789 0.234375a6.4680411 6.3670334 0 0 1 0.162109 0.470703c0.02819 0.09557 0.05251 0.192013 0.07617 0.289063a6.4680411 6.3670334 0 0 1 0.09375 0.460937c0.01552 0.09369 0.03364 0.18656 0.04492 0.28125a6.4680411 6.3670334 0 0 1 0.048755 0.736365v-0.992187a6.4680411 6.3670334 0 0 0 0-2e-3c0-2e-3 2e-6 -0.0039 0-0.0059a6.4680411 6.3670334 0 0 0-0.04883-0.736328c-0.01128-0.09469-0.0294-0.187564-0.04492-0.28125a6.4680411 6.3670334 0 0 0-0.09375-0.46085c-0.02366-0.09705-0.04798-0.193497-0.07617-0.289063a6.4680411 6.3670334 0 0 0-0.162111-0.470703c-0.02991-0.07803-0.05494-0.157655-0.08789-0.234375a6.4680411 6.3670334 0 0 0-0.0059-0.01563 6.4680411 6.3670334 0 0 0-0.0332-0.07227l-0.0039 2e-3c-0.545468-1.218494-1.467226-2.261382-2.677704-2.949256l-19.03125-10.816406c-0.93806-0.5323778-1.997602-0.8246873-3.080078-0.8496094z" style="fill:#ffffff;opacity:.2"/>
 <path d="m29 12.949-14.064453 9.142578 10.251953 4.996094 3.8125-2.28711zm6 0.103515v11.947266l2.996094 1.998047 10.154297-4.947266zm-3 12.947266a7 7 0 0 0-7 7 7 7 0 0 0 7 7 7 7 0 0 0 7-7 7 7 0 0 0-7-7zm19 1.337891-10 4.871093v2.582032l10 4.871093zm-38 0.208984v12.324219l10-4.871094v-2.582031zm13.107422 11.917969-11.03711 5.376953 13.929688 8.357422v-12zm11.021484 0.115234-2.128906 1.419922v12.105469l13.017578-8.220703z" style="opacity:.1"/>
 <path d="m29 11.949219-14.064453 9.142578 10.251953 4.996094 3.8125-2.28711v-11.851562zm6 0.103515v11.947266l2.996094 1.998047 10.154297-4.947266-13.150391-8.998047zm-3 12.947266a7 7 0 0 0-7 7 7 7 0 0 0 7 7 7 7 0 0 0 7-7 7 7 0 0 0-7-7zm19 1.337891-10 4.871093v2.582032l10 4.871093v-12.324218zm-38 0.208984v12.324219l10-4.871094v-2.582031l-10-4.871094zm13.107422 11.917969-11.03711 5.376953 13.929688 8.357422v-12l-2.892578-1.734375zm11.021484 0.115234-2.128906 1.419922v12.105469l13.017578-8.220703-10.888672-5.304688z" style="fill:#283046"/>
 <path d="m26.412109 27.794922a7 7 0 0 0-1.412109 4.205078 7 7 0 0 0 7 7 7 7 0 0 0 5.398438-2.552734 19 19 0 0 0-10.986329-8.652344zm-10.830078 0.009766a19 19 0 0 0-2.582031 0.984374v10.082032l10-4.871094v-2.582031l-7.417969-3.613281zm10.525391 10.660156-11.03711 5.376953 13.929688 8.357422v-12l-2.892578-1.734375zm11.021484 0.115234-2.128906 1.419922v12.105469l4.71875-2.980469a19 19 0 0 0 0.28125-3.125 19 19 0 0 0-1.199219-6.605469l-1.671875-0.814453z" style="fill:#4a85c3"/>
</svg>

<?xml version="1.0" encoding="UTF-8" standalone="no"?>
<svg
   id="_图层_1"
   version="1.1"
   viewBox="0 0 64 64" width="64" height="64"
   sodipodi:docname="civilization-beyond-earth.svg"
   xml:space="preserve"
   inkscape:version="1.4 (e7c3feb100, 2024-10-09)"
   xmlns:inkscape="http://www.inkscape.org/namespaces/inkscape"
   xmlns:sodipodi="http://sodipodi.sourceforge.net/DTD/sodipodi-0.dtd"
   xmlns="http://www.w3.org/2000/svg"
   xmlns:svg="http://www.w3.org/2000/svg"><sodipodi:namedview
     id="namedview26"
     pagecolor="#505050"
     bordercolor="#eeeeee"
     borderopacity="1"
     inkscape:showpageshadow="0"
     inkscape:pageopacity="0"
     inkscape:pagecheckerboard="0"
     inkscape:deskcolor="#505050"
     inkscape:zoom="10.6875"
     inkscape:cx="32"
     inkscape:cy="39.48538"
     inkscape:window-width="1920"
     inkscape:window-height="939"
     inkscape:window-x="0"
     inkscape:window-y="34"
     inkscape:window-maximized="1"
     inkscape:current-layer="g26" /><!-- Generator: Adobe Illustrator 29.0.1, SVG Export Plug-In . SVG Version: 2.1.0 Build 192)  --><defs
     id="defs6"><style
       id="style1">
      .st0 {
        fill-opacity: .5;
      }

      .st0, .st1, .st2, .st3, .st4, .st5, .st6, .st7 {
        fill: #fff;
      }

      .st8 {
        fill: #133c9a;
      }

      .st2, .st9 {
        display: none;
      }

      .st3 {
        fill-opacity: .2;
      }

      .st4 {
        fill-opacity: .9;
      }

      .st10 {
        fill: #3370ff;
      }

      .st11 {
        fill: url(#_未命名的渐变_3);
      }

      .st12 {
        fill: url(#_未命名的渐变);
      }

      .st5 {
        fill-opacity: .3;
      }

      .st6 {
        fill-opacity: 0;
      }

      .st7 {
        fill-opacity: .7;
      }

      .st13 {
        fill: #00d6b9;
      }

      .st14 {
        fill: url(#_未命名的渐变_2);
      }
    </style><radialGradient
       id="_未命名的渐变"
       data-name="未命名的渐变"
       cx="123.9"
       cy="-40.2"
       fx="123.9"
       fy="-40.2"
       r="59.4"
       gradientTransform="translate(-26.8 25.5) scale(.6 -.7)"
       gradientUnits="userSpaceOnUse"><stop
         offset="0"
         stop-color="#db202e"
         id="stop1" /><stop
         offset="1"
         stop-color="#e01b24"
         id="stop2" /></radialGradient><radialGradient
       id="_未命名的渐变_2"
       data-name="未命名的渐变 2"
       cx="67.6"
       cy="26.8"
       fx="67.6"
       fy="26.8"
       r="105.2"
       gradientTransform="translate(-26.6 25.3) scale(.6 -.7)"
       gradientUnits="userSpaceOnUse"><stop
         offset="0"
         stop-color="#ffb648"
         id="stop3" /><stop
         offset="1"
         stop-color="#ff7800"
         stop-opacity="0"
         id="stop4" /></radialGradient><radialGradient
       id="_未命名的渐变_3"
       data-name="未命名的渐变 3"
       cx="61.7"
       cy="18.6"
       fx="61.7"
       fy="18.6"
       r="68"
       gradientTransform="translate(-26.8 25.8) scale(.6 -.7)"
       gradientUnits="userSpaceOnUse"><stop
         offset="0"
         stop-color="#c64600"
         id="stop5" /><stop
         offset="1"
         stop-color="#a51d2d"
         id="stop6" /></radialGradient></defs><path
     class="st1"
     d="M47.5,64.1H13.8c-7.6,0-13.8-6.3-13.8-13.8V13.7C0,6.2,6.2,0,13.7,0h36.6c7.5,0,13.7,6.2,13.7,13.7v36.6c0,7.5-6.2,13.7-13.7,13.7h-2.9.1Z"
     id="path6"
     style="fill:#e4e4e4;fill-opacity:1" /><g
     id="g26"
     transform="matrix(1.2531812,0,0,1.1395301,-7.5688723,-4.4265415)"><path
       d="M 29,12.949 14.935547,22.091578 25.1875,27.087672 29,24.800562 Z m 6,0.103515 v 11.947266 l 2.996094,1.998047 10.154297,-4.947266 z m -3,12.947266 a 7,7 0 0 0 -7,7 7,7 0 0 0 7,7 7,7 0 0 0 7,-7 7,7 0 0 0 -7,-7 z m 19,1.337891 -10,4.871093 v 2.582032 L 51,39.66189 Z M 13,27.546656 V 39.870875 L 23,34.999781 V 32.41775 Z M 26.107422,39.464625 15.070312,44.841578 29,53.199 v -12 z M 37.128906,39.579859 35,40.999781 V 53.10525 l 13.017578,-8.220703 z"
       style="opacity:0.1"
       id="path4" /><path
       d="M 29,11.949219 14.935547,21.091797 25.1875,26.087891 29,23.800781 Z m 6,0.103515 V 24 l 2.996094,1.998047 10.154297,-4.947266 z M 32,25 a 7,7 0 0 0 -7,7 7,7 0 0 0 7,7 7,7 0 0 0 7,-7 7,7 0 0 0 -7,-7 z m 19,1.337891 -10,4.871093 v 2.582032 l 10,4.871093 z M 13,26.546875 V 38.871094 L 23,34 V 31.417969 Z M 26.107422,38.464844 15.070312,43.841797 29,52.199219 v -12 z M 37.128906,38.580078 35,40 v 12.105469 l 13.017578,-8.220703 z"
       style="fill:#283046"
       id="path5" /><path
       d="M 26.412109,27.794922 A 7,7 0 0 0 25,32 a 7,7 0 0 0 7,7 7,7 0 0 0 5.398438,-2.552734 19,19 0 0 0 -10.986329,-8.652344 z m -10.830078,0.0098 A 19,19 0 0 0 13,28.789062 V 38.871094 L 23,34 V 31.417969 Z M 26.107422,38.464844 15.070312,43.841797 29,52.199219 v -12 z M 37.128906,38.580078 35,40 V 52.105469 L 39.71875,49.125 A 19,19 0 0 0 40,46 19,19 0 0 0 38.800781,39.394531 Z"
       style="fill:#4a85c3"
       id="path6-6" /></g></svg>
